static/logos/linkedin-glyph-color.svg

<svg width="50" height="50" viewBox="0 0 50 50" fill="none" xmlns="http://www.w3.org/2000/svg">
<g clip-path="url(#clip0_1_2168)">
<path d="M42.486 41.8211H35.2133V30.4317C35.2133 27.7158 35.1648 24.2196 31.4307 24.2196C27.6428 24.2196 27.0633 27.1787 27.0633 30.234V41.8204H19.7906V18.3992H26.7724V21.5999H26.8701C27.5688 20.4053 28.5785 19.4225 29.7916 18.7563C31.0047 18.09 32.3757 17.7653 33.7588 17.8166C41.13 17.8166 42.4891 22.6651 42.4891 28.9727L42.486 41.8211ZM11.5845 15.1977C10.7498 15.1978 9.93375 14.9505 9.23966 14.4868C8.5455 14.0232 8.00444 13.3642 7.68489 12.593C7.36529 11.8219 7.28156 10.9733 7.44426 10.1546C7.60694 9.33591 8.00875 8.58379 8.59891 7.99341C9.18906 7.40309 9.94095 7.001 10.7597 6.83801C11.5783 6.67501 12.4269 6.75844 13.1981 7.07774C13.9694 7.39703 14.6287 7.93788 15.0925 8.63182C15.5564 9.32576 15.8041 10.1417 15.8042 10.9764C15.8043 11.5307 15.6953 12.0795 15.4832 12.5916C15.2713 13.1037 14.9604 13.569 14.5686 13.961C14.1768 14.353 13.7116 14.6639 13.1996 14.8761C12.6875 15.0883 12.1388 15.1976 11.5845 15.1977ZM15.2209 41.8211H7.94057V18.3992H15.2209V41.8211ZM46.1118 0.00297663H4.28604C3.33671 -0.00773653 2.42196 0.358882 1.7428 1.02227C1.06365 1.68566 0.675649 2.59154 0.664062 3.54085V45.5401C0.675252 46.4899 1.06301 47.3964 1.74214 48.0605C2.42128 48.7245 3.33624 49.0919 4.28604 49.0817H46.1118C47.0635 49.0937 47.9809 48.7274 48.6628 48.0633C49.3446 47.3993 49.735 46.4917 49.7481 45.5401V3.53782C49.7346 2.58662 49.344 1.67972 48.6622 1.01634C47.9803 0.352973 47.063 -0.0125989 46.1118 -5.36737e-05V0.00297663Z" fill="#0A66C2"/>
</g>
<defs>
<clipPath id="clip0_1_2168">
<rect width="50" height="49.2424" fill="white"/>
</clipPath>
</defs>
</svg>

<svg xmlns="http://www.w3.org/2000/svg" width="64" height="64" fill="none" viewBox="0 0 50 50"><g clip-path="url(#a)"><path fill="#0A66C2" d="M42.486 41.821h-7.273v-11.39c0-2.715-.048-6.211-3.782-6.211-3.788 0-4.368 2.959-4.368 6.014V41.82h-7.272V18.4h6.981v3.2h.098a7.651 7.651 0 0 1 6.889-3.783c7.371 0 8.73 4.848 8.73 11.156l-.003 12.848ZM11.585 15.198a4.22 4.22 0 1 1-.002-8.44 4.22 4.22 0 0 1 .002 8.44ZM15.22 41.82H7.94V18.4h7.28v23.422ZM46.11.003H4.287A3.582 3.582 0 0 0 .664 3.541v42a3.584 3.584 0 0 0 3.622 3.54h41.826a3.591 3.591 0 0 0 3.636-3.54V3.537A3.59 3.59 0 0 0 46.112 0v.003Z"/></g><defs><clipPath id="a"><path fill="#fff" d="M0 0h50v49.242H0z"/></clipPath></defs></svg>
